icons/4_Outdated/ProtonMail.svg

<svg width="1024" height="1024" viewBox="0 0 1024 1024" fill="none" xmlns="http://www.w3.org/2000/svg">
<g clip-path="url(#clip0_3_653)">
<path d="M512 1024C794.77 1024 1024 794.77 1024 512C1024 229.23 794.77 0 512 0C229.23 0 0 229.23 0 512C0 794.77 229.23 1024 512 1024Z" fill="#9ABEFF"/>
<path d="M512 676.199C512 676.199 488.6 673.899 470.3 661.199C452 648.499 329.9 561.199 329.9 561.199V733.999C329.9 733.999 330.9 754.099 353 754.099H670.9C693 754.099 694 733.999 694 733.999V561.099C694 561.099 571.9 648.399 553.6 661.199C535.4 673.799 512 676.199 512 676.199ZM512 241.999C512 241.999 361.1 237.099 329.9 404.599V518.699C329.9 518.699 331.2 530.899 365.5 555.699C399.8 580.499 488.7 650.299 512 650.299C535.2 650.299 624.1 580.499 658.5 555.599C692.8 530.799 694.1 518.499 694.1 518.499V404.599C662.9 237.099 512 242.099 512 241.999ZM615.4 466.799H408.7V404.599C429.7 321.399 512 320.199 512 320.199C512 320.199 594.4 321.399 615.4 404.599V466.799Z" fill="white"/>
</g>
<defs>
<clipPath id="clip0_3_653">
<rect width="1024" height="1024" fill="white"/>
</clipPath>
</defs>
</svg>

<svg xmlns="http://www.w3.org/2000/svg" viewBox="0 0 1024 1024">
   <circle cx="512" cy="512" r="512" style="fill:#8b89cc"/>
   <path d="M512 676.2s-23.4-2.3-41.7-15c-18.3-12.7-140.4-100-140.4-100V734s1 20.1 23.1 20.1h317.9C693 754.1 694 734 694 734V561.1s-122.1 87.3-140.4 100.1c-18.2 12.6-41.6 15-41.6 15zm0-434.2s-150.9-4.9-182.1 162.6v114.1s1.3 12.2 35.6 37c34.3 24.8 123.2 94.6 146.5 94.6 23.2 0 112.1-69.8 146.5-94.7 34.3-24.8 35.6-37.1 35.6-37.1V404.6C662.9 237.1 512 242.1 512 242zm103.4 224.8H408.7v-62.2c21-83.2 103.3-84.4 103.3-84.4s82.4 1.2 103.4 84.4v62.2z" style="fill:#fff"/>
</svg>
